/JOB
//NAME FACE
//POS
///NPOS 503,0,0,0
///TOOL 0
///RECTAN
///RCONF 0,0,0,0,0
C000=1111.964,-526.190,150.448,-168.90,-11.30,-68.01
C001=1363.324,-96.589,45.000,-168.80,-11.35,-67.97
C002=1351.673,-94.694,45.000,-168.80,-11.35,-67.97
C003=1346.608,-91.244,45.000,-168.80,-11.35,-67.97
C004=1335.068,-75.627,45.000,-168.80,-11.35,-67.97
C005=1331.323,-71.321,45.000,-168.80,-11.35,-67.97
C006=1333.200,-36.851,45.000,-168.80,-11.35,-67.97
C007=1334.077,-30.068,45.000,-168.80,-11.35,-67.97
C008=1269.626,119.203,45.000,-168.80,-11.35,-67.97
C009=1268.733,125.676,45.000,-168.80,-11.35,-67.97
C010=1284.621,149.950,45.000,-168.80,-11.35,-67.97
C011=1289.320,154.174,45.000,-168.80,-11.35,-67.97
C012=1328.720,168.477,45.000,-168.80,-11.35,-67.97
C013=1333.514,166.796,45.000,-168.80,-11.35,-67.97
C014=1378.056,15.461,45.000,-168.80,-11.35,-67.97
C015=1380.449,9.013,45.000,-168.80,-11.35,-67.97
C016=1411.762,-22.002,45.000,-168.80,-11.35,-67.97
C017=1414.148,-28.330,45.000,-168.80,-11.35,-67.97
C018=1412.379,-56.185,45.000,-168.80,-11.35,-67.97
C019=1408.858,-61.649,45.000,-168.80,-11.35,-67.97
C020=1363.324,-96.589,45.000,-168.80,-11.35,-67.97
C021=1363.324,-96.589,55.000,-168.80,-11.35,-67.97
C022=1541.709,443.356,55.000,-168.80,-11.35,-67.97
C023=1541.709,443.356,45.000,-168.80,-11.35,-67.97
C024=1539.085,452.956,45.000,-168.80,-11.35,-67.97
C025=1540.277,454.756,45.000,-168.80,-11.35,-67.97
C026=1555.268,456.973,45.000,-168.80,-11.35,-67.97
C027=1557.766,456.722,45.000,-168.80,-11.35,-67.97
C028=1577.429,398.283,45.000,-168.80,-11.35,-67.97
C029=1578.351,395.488,45.000,-168.80,-11.35,-67.97
C030=1582.642,350.813,45.000,-168.80,-11.35,-67.97
C031=1582.744,347.803,45.000,-168.80,-11.35,-67.97
C032=1579.777,336.467,45.000,-168.80,-11.35,-67.97
C033=1578.146,334.174,45.000,-168.80,-11.35,-67.97
C034=1569.611,332.215,45.000,-168.80,-11.35,-67.97
C035=1568.325,334.807,45.000,-168.80,-11.35,-67.97
C036=1541.709,443.356,45.000,-168.80,-11.35,-67.97
C037=1541.709,443.356,55.000,-168.80,-11.35,-67.97
C038=1401.354,196.503,55.000,-168.80,-11.35,-67.97
C039=1401.354,196.503,45.000,-168.80,-11.35,-67.97
C040=1438.132,68.968,45.000,-168.80,-11.35,-67.97
C041=1441.369,63.251,45.000,-168.80,-11.35,-67.97
C042=1607.142,117.508,45.000,-168.80,-11.35,-67.97
C043=1609.040,121.908,45.000,-168.80,-11.35,-67.97
C044=1577.006,244.168,45.000,-168.80,-11.35,-67.97
C045=1574.388,249.104,45.000,-168.80,-11.35,-67.97
C046=1401.354,196.503,45.000,-168.80,-11.35,-67.97
C047=1401.354,196.503,55.000,-168.80,-11.35,-67.97
C048=1465.109,69.669,55.000,-168.80,-11.35,-67.97
C049=1465.109,69.669,45.000,-168.80,-11.35,-67.97
C050=1463.872,75.464,45.000,-168.80,-11.35,-67.97
C051=1460.454,77.979,45.000,-168.80,-11.35,-67.97
C052=1449.394,74.571,45.000,-168.80,-11.35,-67.97
C053=1446.886,80.326,45.000,-168.80,-11.35,-67.97
C054=1418.852,184.015,45.000,-168.80,-11.35,-67.97
C055=1416.830,190.401,45.000,-168.80,-11.35,-67.97
C056=1420.189,195.591,45.000,-168.80,-11.35,-67.97
C057=1425.340,198.622,45.000,-168.80,-11.35,-67.97
C058=1564.958,235.450,45.000,-168.80,-11.35,-67.97
C059=1570.118,234.953,45.000,-168.80,-11.35,-67.97
C060=1598.155,138.306,45.000,-168.80,-11.35,-67.97
C061=1599.103,131.527,45.000,-168.80,-11.35,-67.97
C062=1589.157,121.874,45.000,-168.80,-11.35,-67.97
C063=1589.253,116.168,45.000,-168.80,-11.35,-67.97
C064=1573.073,109.167,45.000,-168.80,-11.35,-67.97
C065=1567.903,106.160,45.000,-168.80,-11.35,-67.97
C066=1559.681,109.667,45.000,-168.80,-11.35,-67.97
C067=1557.996,116.226,45.000,-168.80,-11.35,-67.97
C068=1498.826,91.976,45.000,-168.80,-11.35,-67.97
C069=1493.318,90.527,45.000,-168.80,-11.35,-67.97
C070=1491.704,86.025,45.000,-168.80,-11.35,-67.97
C071=1492.587,79.548,45.000,-168.80,-11.35,-67.97
C072=1465.109,69.669,45.000,-168.80,-11.35,-67.97
C073=1465.109,69.669,55.000,-168.80,-11.35,-67.97
C074=1448.332,126.922,55.000,-168.80,-11.35,-67.97
C075=1448.332,126.922,45.000,-168.80,-11.35,-67.97
C076=1486.835,141.508,45.000,-168.80,-11.35,-67.97
C077=1488.098,142.03